X: 17481
T: Hill Of The Cranes, The
R: reel
M: 4/4
K: Eminor
D/E/F|GA"c"BG E2GE|DEGA BedB|AE"c"cE cEc/{d}c/E|AEAG FDEF|
GABG E2GE|DEGA BedB|c2cB cgfg|ecAF G2:|
Bd|g~d3 gdbd|gfed cBAG|EAAB A>BAG|EAAG FDEF|
GDB,D G,B,DG|BGA/B/c dBGB|dgB/c/d ecAF|AGGF G2:|

